Sources/FrostedUI/Resources/Icons.xcassets/happyFaceFilled12.imageset/happy-face-filled-12.svg

<svg width="12" height="12" viewBox="0 0 12 12" fill="none" xmlns="http://www.w3.org/2000/svg" data-fui-icon="true">
  <g clip-path="url(#clip0_6205_215)">
    <path
      d="M6 0C9.31371 0 12 2.68629 12 6C12 9.31371 9.31371 12 6 12C2.68629 12 0 9.31371 0 6C0 2.68629 2.68629 0 6 0ZM4.63281 6.84766C4.42936 6.52681 4.01223 6.40575 3.66504 6.5791C3.29469 6.76428 3.14416 7.21455 3.3291 7.58496L3.72266 7.38867C3.34233 7.57896 3.32936 7.5854 3.3291 7.58594L3.33008 7.58691L3.33691 7.60059C3.34018 7.60681 3.34415 7.6149 3.34863 7.62305C3.35757 7.63929 3.36975 7.6595 3.38379 7.68262C3.41192 7.72892 3.45104 7.78856 3.50195 7.85645C3.6039 7.99233 3.75572 8.16551 3.96875 8.33594C4.40465 8.68466 5.06781 9 6 9C6.93219 9 7.59535 8.68466 8.03125 8.33594C8.24428 8.16551 8.3961 7.99233 8.49805 7.85645C8.54896 7.78856 8.58808 7.72892 8.61621 7.68262C8.63025 7.6595 8.64243 7.63929 8.65137 7.62305C8.65585 7.6149 8.65982 7.60681 8.66309 7.60059L8.66992 7.58691L8.6709 7.58594C8.67064 7.5854 8.65767 7.57896 8.27734 7.38867L8.6709 7.58496C8.85584 7.21455 8.70531 6.76428 8.33496 6.5791C7.98777 6.40575 7.57064 6.52681 7.36719 6.84766L7.33203 6.90918C7.3325 6.90826 7.3326 6.90703 7.33301 6.90625C7.32733 6.91543 7.31618 6.9329 7.29883 6.95605C7.26015 7.00762 7.19306 7.08462 7.09375 7.16406C6.90465 7.31534 6.56781 7.5 6 7.5C5.43219 7.5 5.09535 7.31534 4.90625 7.16406C4.80694 7.08462 4.73985 7.00762 4.70117 6.95605C4.68507 6.93456 4.67301 6.91878 4.66699 6.90918L4.63281 6.84766ZM4.25 3.78125C3.69772 3.78125 3.25 4.22897 3.25 4.78125C3.25 5.33353 3.69772 5.78125 4.25 5.78125C4.80228 5.78125 5.25 5.33353 5.25 4.78125C5.25 4.22897 4.80228 3.78125 4.25 3.78125ZM7.75 3.78125C7.19772 3.78125 6.75 4.22897 6.75 4.78125C6.75 5.33353 7.19772 5.78125 7.75 5.78125C8.30229 5.78125 8.75 5.33353 8.75 4.78125C8.75 4.22897 8.30229 3.78125 7.75 3.78125Z"
      fill="currentColor"
    />
  </g>
  <defs>
    <clipPath id="clip0_6205_215"><path fill="currentColor" d="M0 0H12V12H0z" /></clipPath>
  </defs>
</svg>

<svg xmlns="http://www.w3.org/2000/svg" width="12" height="12" fill="none" data-fui-icon="true" viewBox="0 0 12 12"><g clip-path="url(#a)"><path fill="currentColor" d="M6 0a6 6 0 1 1 0 12A6 6 0 0 1 6 0M4.633 6.848a.75.75 0 0 0-1.304.737l.394-.196-.394.197h.001l.007.015.012.022q.013.025.035.06.042.07.118.173c.102.136.254.31.467.48C4.405 8.685 5.068 9 6 9s1.595-.315 2.031-.664a2.7 2.7 0 0 0 .585-.653l.035-.06.012-.022.007-.014v-.001l-.393-.197.394.196a.75.75 0 0 0-1.304-.737l-.035.061.001-.003-.034.05a1.2 1.2 0 0 1-.205.208c-.19.151-.526.336-1.094.336s-.905-.185-1.094-.336c-.1-.08-.166-.156-.205-.208l-.034-.047zM4.25 3.78a1 1 0 1 0 0 2 1 1 0 0 0 0-2m3.5 0a1 1 0 1 0 0 2 1 1 0 0 0 0-2"/></g><defs><clipPath id="a"><path fill="currentColor" d="M0 0h12v12H0z"/></clipPath></defs></svg>
